icon-themes/sifr_svg/cmd/lc_connectorlinesarrowstart.svg

<svg viewBox="0 0 24 24" xmlns="http://www.w3.org/2000/svg"><path d="m6 1c-.30945 0-.55232.0903-.75.28125l-4.25 3.71875c1.41667 1.073 2.83333 2.64574 4.25 3.71875.19768.19095.44055.28125.75.28125h.5859375.4140625v-1c0-.25689-.12983-.52845-.3125-.71875l-1.5097656-1.28125h4.0683594l3.7929682 13.275391a1.0001 1.0001 0 0 0 .960938.724609h1.144531c.449877 1.715787 2.005166 3 3.855469 3 2.197296 0 4-1.802704 4-4s-1.802704-4-4-4c-1.850303 0-3.405592 1.284213-3.855469 3h-.390625l-3.792968-13.2753906a1.0001 1.0001 0 0 0 -.960938-.7246094h-4.8222656l1.5097656-1.28125c.18267-.19029.3125-.46186.3125-.71875v-1h-.4140625zm13 16c1.116415 0 2 .883584 2 2s-.883585 2-2 2-2-.883584-2-2 .883585-2 2-2z" fill="#555753"/></svg>

<svg xmlns="http://www.w3.org/2000/svg" viewBox="0 0 24 24">
 <path
     style="fill:#555753"
     d="M 6 1 C 5.69055 1 5.44768 1.0903 5.25 1.28125 L 1 5 C 2.41667 6.073 3.83333 7.64574 5.25 8.71875 C 5.44768 8.9097 5.69055 9 6 9 L 6.5859375 9 L 7 9 L 7 8 C 7 7.74311 6.87017 7.47155 6.6875 7.28125 L 5.1777344 6 L 9.2460938 6 L 13.039062 19.275391 A 1.0001 1.0001 0 0 0 14 20 L 15.144531 20 C 15.594408 21.715787 17.149697 23 19 23 C 21.197296 23 23 21.197296 23 19 C 23 16.802704 21.197296 15 19 15 C 17.149697 15 15.594408 16.284213 15.144531 18 L 14.753906 18 L 10.960938 4.7246094 A 1.0001 1.0001 0 0 0 10 4 L 5.1777344 4 L 6.6875 2.71875 C 6.87017 2.52846 7 2.25689 7 2 L 7 1 L 6.5859375 1 L 6 1 z M 19 17 C 20.116415 17 21 17.883584 21 19 C 21 20.116416 20.116415 21 19 21 C 17.883585 21 17 20.116416 17 19 C 17 17.883584 17.883585 17 19 17 z "
     />
 </svg>
